X: 1
T: Dowd's Number Nine
M: 4/4
L: 1/8
D: First Through the Gate, Brian Conway
K: Dmaj
|DFAF GFEF|DEFA dABG|FGAF GFGB|AG F/E/D A,CEC|
|DFAF GFEF|D3c dABG|FGAF GFGB|AG F/E/D A,CEC|
|D~F3 GFEF|D3c dABG|FGAF GFGB|AG F/E/D A,CEC|
|DFAF GFEF|DEFA dABG|FGAF GFGB|AGFD EF D2 ||
|fd d/d/d g2 ag|f~d3 cdeg|fdAd gfec|dcde fdd2 |
|fgaf gbeg|fedf ecAF|G2 B/A/G FAdB|AGFD EF D2 |
|fd d/d/d g2 ag|f~d3 cdeg|fdAd gfec|dcde fdd2 |
|f/f/g af gbeg|fedf ecAF|G2 B/A/G FAdB|AGFD A,CEC||
